svg/tabsFill.svg

<svg width="284" height="284" viewBox="0 0 284 284" fill="none" xmlns="http://www.w3.org/2000/svg">
<path fill-rule="evenodd" clip-rule="evenodd" d="M221.502 136.186H165.341C152.817 136.186 142.666 146.341 142.666 158.865V204.216H171.706L171.708 204.217H244.18V158.865C244.18 146.341 234.026 136.186 221.502 136.186Z" fill="#1A1919"/>
<path fill-rule="evenodd" clip-rule="evenodd" d="M131.666 158.865C131.666 140.295 146.773 125.186 165.341 125.186H171.707V105.064C171.707 90.9637 162.181 79.4907 150.474 79.4907L61.1527 79.4917C49.4467 79.4917 39.9227 90.9647 39.9227 105.065V204.218L131.666 204.217V158.865Z" fill="#1A1919"/>
</svg>

<svg width="284" height="284" viewBox="0 0 284 284" xmlns="http://www.w3.org/2000/svg">
    <g fill="#1A1918" fill-rule="evenodd">
        <path d="M221.502 136.186h-56.16c-12.525 0-22.676 10.155-22.676 22.68v45.35h29.04l.002.001h72.472v-45.352c0-12.524-10.154-22.679-22.678-22.679"/>
        <path d="M131.666 158.865c0-18.57 15.107-33.68 33.675-33.68h6.366v-20.121c0-14.1-9.526-25.573-21.233-25.573H61.153c-11.706 0-21.23 11.474-21.23 25.574v99.153l91.743-.001v-45.352z"/>
    </g>
</svg>
